!!!OTL: 404. Das Buendnis. / Melodie vereinfacht vom Volke.
!!!ARE: Europa, Mitteleuropa, Deutschland
!!!SCT: B0404A
!!!YEM: Copyright 1995, estate of Helmut Schaffrath.
**kern
*ICvox
*Ivox
*clefG2
*M3/4
*k[f#]
*G:
=1
{8g
8b
8dd
8dd
8b
8g
=2
8gL
8f#J
4f#
4r}
=3
{8d
8cc
8cc
8cc
8dd
8cc
=4
(4cc
4b)
4r}
=5
{8g
8ee
8ee
8ff#
8gg
8ee
=6
8eeL
8ddJ
4dd
4r}
=7
{8cc
8dd
8ee
8dd
8cc
8f#
=8
(4a
4g)
4r}
==
!!!AGN: Liebes - Lied, Liebes - Lust
!!!GTL: Liebeslieder - Liebeslust
!!!ONB: ESAC (Essen Associative Code) Database: BOEHME
!!!AMT: simple triple
!!!AIN: vox
!!!EED: Helmut Schaffrath
!!!EEV: 1.0
!!!URL-scan: https://archive.org/details/BoehmeVtLieder1895/page/n333/mode/2up
!!!ENC: Anna Maria Matuszewska
!!!EEV: 2024/08/07
*-
